resources/svg/sd-card-fill.svg

<svg fill="currentColor" viewBox="0 0 24 24" xmlns="http://www.w3.org/2000/svg"><path d="M4.29289 6.70711L9 2H19C19.5523 2 20 2.44772 20 3V21C20 21.5523 19.5523 22 19 22H5C4.44772 22 4 21.5523 4 21V7.41421C4 7.149 4.10536 6.89464 4.29289 6.70711ZM15 5V9H17V5H15ZM12 5V9H14V5H12ZM9 5V9H11V5H9Z"/></svg>

<svg xmlns="http://www.w3.org/2000/svg" viewBox="0 0 24 24" fill="currentColor">
    <g>
        <path fill="none" d="M0 0h24v24H0z"/>
        <path d="M4.293 6.707L9 2h10a1 1 0 0 1 1 1v18a1 1 0 0 1-1 1H5a1 1 0 0 1-1-1V7.414a1 1 0 0 1 .293-.707zM15 5v4h2V5h-2zm-3 0v4h2V5h-2zM9 5v4h2V5H9z"/>
    </g>
</svg>
